X:330
T:Last New Rigaudon,The. (p)1695.PLFD.330
M:4/4
L:1/8
Q:1/2=50
S:Playford, Dancing Master,9th Ed,1695.
R:.Rigaudon
O:England
H:1695.
Z:Chris Partington.
K:G
g2f>ed2B2|ce dc/B/|A/G/F/E/ D/d/e/f/|\
g2f>ed2df|e/d/c/B/ c>BA2G2:|
|:A>GABc2(cd/e/)|(dc/B/) cdB2Af|g>fg>B cAdF|(GF/E/) Bc/B/A2G2:|
